src/pos-icons/home-circle-outline.svg

<svg height="24" viewBox="0 0 24 24" width="24" xmlns="http://www.w3.org/2000/svg"><path d="m12 20c-4.4 0-8-3.6-8-8s3.6-8 8-8 8 3.6 8 8-3.6 8-8 8m0-18c-5.5 0-10 4.5-10 10s4.5 10 10 10 10-4.5 10-10-4.5-10-10-10m-1 12h2v3h3v-5h2l-6-5-6 5h2v5h3z"/></svg>

<?xml version="1.0" encoding="UTF-8"?><!DOCTYPE svg PUBLIC "-//W3C//DTD SVG 1.1//EN" "http://www.w3.org/Graphics/SVG/1.1/DTD/svg11.dtd"><svg xmlns="http://www.w3.org/2000/svg" xmlns:xlink="http://www.w3.org/1999/xlink" version="1.1" id="mdi-home-circle-outline" width="24" height="24" viewBox="0 0 24 24"><path d="M12 20C7.6 20 4 16.4 4 12S7.6 4 12 4 20 7.6 20 12 16.4 20 12 20M12 2C6.5 2 2 6.5 2 12S6.5 22 12 22 22 17.5 22 12 17.5 2 12 2M11 14H13V17H16V12H18L12 7L6 12H8V17H11V14" /></svg>
